img/help-03.svg

<svg width="70" height="70" viewBox="0 0 70 70" fill="none" xmlns="http://www.w3.org/2000/svg">
<path d="M34.5375 69C34.0666 69 33.6253 68.7652 33.3637 68.3749L23.7124 54.0084C23.5017 53.6944 23.4253 53.3097 23.5003 52.9392L28.5607 27.8946L31.3327 28.4547L26.3897 52.9194L34.5375 65.0484L42.6853 52.9194L37.7423 28.4547C37.6759 28.1266 37.7282 27.7857 37.8894 27.4915L39.8695 23.8936L42.3473 25.2584L40.6162 28.4024L45.5734 52.9377C45.6483 53.3083 45.5719 53.693 45.3612 54.007L35.71 68.3735C35.4483 68.7652 35.0085 69 34.5375 69Z" fill="#4054F9"/>
<path d="M34.5374 29.5885H29.9451C29.4459 29.5885 28.9834 29.324 28.7288 28.8955L26.9808 25.9467C26.5833 25.2749 26.804 24.4079 27.4772 24.0091C28.1476 23.6117 29.0159 23.8323 29.4148 24.5055L30.7513 26.7613H34.5374C35.3181 26.7613 35.9517 27.3949 35.9517 28.1756C35.9517 28.9563 35.3181 29.5885 34.5374 29.5885Z" fill="#4054F9"/>
<path d="M34.5362 69.0001C34.2646 69.0001 33.9902 68.9224 33.7484 68.7597C33.1006 68.3241 32.9267 67.4444 33.3637 66.7967L43.0149 52.4301C43.4519 51.7838 44.3288 51.6084 44.978 52.0454C45.6257 52.4811 45.7983 53.3608 45.3627 54.0085L35.7114 68.375C35.4385 68.7809 34.9901 69.0001 34.5362 69.0001Z" fill="#4054F9"/>
<path d="M29.4818 60.5709C29.2117 60.5709 28.9387 60.4931 28.6968 60.3318C28.0477 59.8976 27.8723 59.0194 28.3079 58.3702L36.2888 46.4349C36.723 45.7843 37.6027 45.6117 38.2505 46.0459C38.8996 46.4801 39.075 47.3584 38.6394 48.0076L30.6585 59.9429C30.3869 60.3502 29.9386 60.5709 29.4818 60.5709Z" fill="#4054F9"/>
<path d="M31.9212 44.675C31.6539 44.675 31.3838 44.5987 31.1433 44.4402C30.4913 44.0103 30.3131 43.132 30.7431 42.48L38.2941 31.0538C38.7254 30.4004 39.6009 30.2236 40.2543 30.6536C40.9049 31.085 41.0845 31.9618 40.6531 32.6138L33.1036 44.0414C32.832 44.453 32.3808 44.675 31.9212 44.675Z" fill="#4054F9"/>
<path d="M24.7674 29.6001C24.7306 29.6001 24.6938 29.5987 24.6556 29.5959C24.2031 29.5605 23.7957 29.3088 23.5595 28.9227L12.866 11.4022C12.5223 10.8393 12.6128 10.1124 13.0866 9.65275L19.5033 3.40152C19.9106 3.0041 20.5174 2.89237 21.0393 3.11159C21.2726 3.21059 21.4692 3.36616 21.6163 3.55992C22.5243 4.46083 30.6311 11.2636 35.6236 15.4203C35.9149 15.6621 36.096 16.01 36.1285 16.3863C36.161 16.7625 36.0408 17.1372 35.7961 17.4244L25.8437 29.1037C25.5735 29.4191 25.1789 29.6001 24.7674 29.6001ZM15.8686 10.8917L24.9569 25.7829L32.7143 16.6776C25.5141 10.6824 22.1141 7.84244 20.5103 6.36732L15.8686 10.8917Z" fill="#4054F9"/>
<path d="M44.6724 29.6002C44.2595 29.6002 43.8663 29.4206 43.5962 29.1024L33.6423 17.4231C33.3976 17.136 33.2774 16.7612 33.3099 16.385C33.3424 16.0088 33.5235 15.6608 33.8148 15.419C38.8073 11.2623 46.9155 4.45954 47.8221 3.55862C47.9692 3.36486 48.1658 3.20929 48.3991 3.11029C48.921 2.89107 49.5306 3.00421 49.9365 3.40022L56.3518 9.65145C56.8242 10.1125 56.9147 10.8381 56.571 11.401L45.8774 28.9214C45.6412 29.3075 45.2339 29.5592 44.7828 29.5946C44.7474 29.5988 44.7092 29.6002 44.6724 29.6002ZM36.7241 16.6777L44.4815 25.783L53.5713 10.8918L48.9295 6.36885C47.3243 7.84256 43.9257 10.6825 36.7241 16.6777Z" fill="#4054F9"/>
<path d="M48.951 5.82861H20.4895C19.7088 5.82861 19.0752 5.195 19.0752 4.41431C19.0752 3.63361 19.7088 3 20.4895 3H48.9496C49.7317 3 50.3639 3.63361 50.3639 4.41431C50.3639 5.195 49.7317 5.82861 48.951 5.82861Z" fill="#4054F9"/>
<path d="M22.3479 60.6642H14.0586C12.0531 60.6642 10.3291 59.1651 10.0519 57.1794L3.04685 16.3823C2.87148 15.1391 3.04685 12.9597 6.11024 11.8537L13.3175 9.42677C14.06 9.17785 14.8605 9.57527 15.1095 10.315C15.3584 11.0546 14.961 11.858 14.2213 12.1069L7.04227 14.5253C5.70999 15.0062 5.78636 15.5493 5.84152 15.9467L12.8466 56.7452C12.9371 57.3859 13.4561 57.8356 14.06 57.8356H22.3493C23.13 57.8356 23.7636 58.4678 23.7636 59.2499C23.7636 60.032 23.13 60.6642 22.3479 60.6642Z" fill="#4054F9"/>
<path d="M55.3803 60.6643H47.0911C46.309 60.6643 45.6768 60.0321 45.6768 59.25C45.6768 58.4678 46.309 57.8357 47.0911 57.8357H55.3803C55.9842 57.8357 56.5018 57.3859 56.5867 56.7877L63.6059 15.9029C63.654 15.5493 63.7304 15.0062 62.3698 14.5155L55.1469 12.0829C54.4073 11.834 54.0084 11.0306 54.2588 10.2909C54.5077 9.55268 55.3053 9.15243 56.0507 9.40276L63.3018 11.8453C66.3935 12.9597 66.5703 15.1392 66.4006 16.3385L59.3814 57.2233C59.1084 59.1665 57.3858 60.6643 55.3803 60.6643Z" fill="#4054F9"/>
</svg>

<svg width="70" height="70" fill="none" xmlns="http://www.w3.org/2000/svg"><path d="M34.538 69c-.471 0-.913-.235-1.174-.625l-9.652-14.367a1.415 1.415 0 0 1-.212-1.069l5.06-25.044 2.773.56-4.943 24.464 8.148 12.13 8.147-12.13-4.943-24.464a1.418 1.418 0 0 1 .147-.963l1.98-3.598 2.478 1.364-1.73 3.144 4.956 24.536c.075.37-.001.755-.212 1.069L35.71 68.374a1.41 1.41 0 0 1-1.172.626Z" fill="#4054F9"/><path d="M34.537 29.588h-4.592c-.5 0-.962-.264-1.216-.693l-1.748-2.948a1.414 1.414 0 1 1 2.434-1.441l1.336 2.255h3.786a1.415 1.415 0 0 1 0 2.828ZM34.536 69a1.414 1.414 0 0 1-1.172-2.203l9.65-14.367a1.415 1.415 0 0 1 2.349 1.578L35.71 68.376a1.415 1.415 0 0 1-1.175.625ZM29.482 60.57a1.413 1.413 0 0 1-1.174-2.2l7.98-11.935a1.413 1.413 0 1 1 2.351 1.573l-7.98 11.935c-.272.407-.72.628-1.177.628ZM31.921 44.675a1.415 1.415 0 0 1-1.178-2.195l7.551-11.426a1.414 1.414 0 1 1 2.36 1.56l-7.55 11.427a1.413 1.413 0 0 1-1.183.634Z" fill="#4054F9"/><path d="M24.767 29.6a1.416 1.416 0 0 1-1.208-.677l-10.693-17.52a1.412 1.412 0 0 1 .22-1.75l6.417-6.251a1.416 1.416 0 0 1 2.113.158c.908.9 9.015 7.704 14.008 11.86a1.413 1.413 0 0 1 .172 2.004l-9.952 11.68a1.42 1.42 0 0 1-1.077.496ZM15.87 10.892l9.088 14.89 7.757-9.104c-7.2-5.996-10.6-8.836-12.204-10.31l-4.641 4.524Z" fill="#4054F9"/><path d="M44.672 29.6a1.41 1.41 0 0 1-1.076-.498l-9.954-11.679a1.415 1.415 0 0 1 .173-2.004c4.992-4.157 13.1-10.96 14.007-11.86a1.417 1.417 0 0 1 2.114-.159l6.416 6.251c.472.462.563 1.187.219 1.75l-10.694 17.52a1.415 1.415 0 0 1-1.205.68Zm-7.948-12.922 7.758 9.105 9.09-14.891-4.643-4.523c-1.605 1.474-5.003 4.313-12.205 10.309Z" fill="#4054F9"/><path d="M48.951 5.829H20.489a1.415 1.415 0 0 1 0-2.829h28.46a1.414 1.414 0 0 1 .002 2.829ZM22.348 60.664h-8.29c-2.005 0-3.729-1.499-4.006-3.485L3.047 16.382c-.176-1.243 0-3.422 3.063-4.528l7.208-2.427a1.414 1.414 0 1 1 .903 2.68l-7.179 2.418c-1.332.481-1.256 1.024-1.2 1.422l7.005 40.798c.09.64.61 1.09 1.213 1.09h8.29a1.414 1.414 0 1 1-.002 2.83ZM55.38 60.664h-8.289a1.413 1.413 0 0 1-1.414-1.414c0-.782.632-1.414 1.414-1.414h8.29c.603 0 1.12-.45 1.206-1.048l7.019-40.885c.048-.354.124-.897-1.236-1.388l-7.223-2.432a1.414 1.414 0 1 1 .904-2.68l7.25 2.442c3.093 1.115 3.27 3.294 3.1 4.493l-7.02 40.885c-.273 1.944-1.995 3.441-4 3.441Z" fill="#4054F9"/></svg>
